!!!COM: Josephine Lang
!!!CNT: Deutsch
!!!TXO: Deutsch
!!!OTL: "Am Flu2sse"
!!!LYR: C. Reinhold
!!!OPS: Op. 14
!!!ONM: No. 2
!!!ENC: Alyona Dzerbina, edited by LVH
!!!YOR: Josephine Lang: Selected Songs
!!!YOR: Da Capo Press, 1982
!!!ODT: 1841/
!!NB: Vocal melody only encoded.
**kern	**text
*staff1	*staff1
*clefG2	*
*k[f#c#g#d#]	*
*M6/8	*
*MM[Allegretto]	*
2.r	.
=2	=2
2.r	.
=3	=3
2.r	.
=4	=4
2.r	.
=5	=5
{[4.b	{Ei-
8b]	|
8g#	-len-
8a	-de
=6	=6
(4.b	Wel-
4ee)	-len,
8r	.
=7	=7
[4.b	spie-
8b]	|
8g#	-lend
8e	im
=8	=8
2.B}	Licht,
=9	=9
{4.b	wenn
4cc#	sie
8a#	zer-
=10	=10
4.b	-schel-
4f#	-len,
8r	.
=11	=11
[4.b	ach-
8b]	|
8a	-ten
8g#	sie's
=12	=12
[4.a	nicht,
4a]}	|}
8r	.
=13	=13
{4.cc#	{wenn
4b#	sie
8b#	zer-
=14	=14
4.cc#	-schel-
4.dd#	-len,
=15	=15
[4.ee	ach-
8ee]	|
8dd#	-ten
8cc#	sie's
=16	=16
2.ff#}	nicht!}
=17	=17
2.r	.
=18	=18
2.r	.
=19	=19
2.r	.
=20	=20
2.r	.
=21	=21
2.r	.
=22	=22
2.r	.
=23	=23
2.r	.
=24	=24
{4.ee	{Ster-
4cc#	-ne
8cc#	da
=25	=25
4.cc#	schwei-
4a	-fen
8cc#	viel
=26	=26
4.ee	tau-
4cc#	-send
8cc#	im
=27	=27
[4.cc#	Fluss;
8cc#]}	|}
8r	.
8r	.
=28	=28
{(4.a	{gleich
4dd#	wie-
8ff#	-der
=29	=29
[4.ff#	grei-
4ff#]	-fen
8a)	sie
=30	=30
(4.a	ei-
4dd#	-nen
8ff#	zum
=31	=31
[4.ff#	Kuss,
4ff#]	|
8a)	viel
=32	=32
[2.aa	tau-
=33	=33
(4aa]	|
8ff#)	|
4dd#	-send
8b	zum
=34	=34
[2.a	Kuss!
=35	=35
4.a_	|
4a]}	|}
8r	.
=36	=36
2.r	.
=37	=37
2.r	.
=38	=38
{2.g#	{Gleich
=39	=39
4.g#	wie-
4.g#	-der
=40	=40
4.g#	grei-
[4.ee	|
=41	=41
(4ee]	|
8cc#)	|
4a	-fen
8f#	sie,
=42	=42
(2.d#	wie-
=43	=43
[4.f#)	-der
4f#]	|
8e	zum
=44	=44
2.e}	Kuss!}
=45	=45
2.r	.
=46	=46
2.r	.
=47	=47
2.r	.
=48	=48
2.r	.
=49	=49
2.r	.
=50!|:	=50!|:
2.r	.
=51	=51
4r	.
8r	.
4r	.
{8B	{In
=52	=52
[4.b	Schmer-
8b]	|
8g#	-zen
8a	und
=53	=53
4.b	Scher-
4ee	-zen,
8b	|
=54	=54
[4.b	spie-
8b]	|
8g#	-len
8e	mir
=55	=55
[4.B	so
4B]}	|}
{8B	{die
=56	=56
4.b	Lie-
4cc#	-der
8a#	im
=57	=57
4.b	Her-
4f#	-zen
8f#	un-
=58	=58
[4.b	-wan-
8b]	|
8a	-del-
8g#	-bar
=59	=59
[4.a	froh,
4a]}	|}
{8f#	{die
=60	=60
4.cc#	Lie-
4b#	-der
8b#	im
=61	=61
4.cc#	Her-
4dd#	-zen
8dd#	un-
=62	=62
[4.ee	-wan-
8ee]	|
8dd#	-del-
8cc#	-bar
=63	=63
2.ff#}	froh.}
=64	=64
2.r	.
=65	=65
2.r	.
=66	=66
2.r	.
=67	=67
2.r	.
=68	=68
2.r	.
=69	=69
2.r	.
=70	=70
4r	.
8r	.
4r	.
{8b	{Ist
=71	=71
4.ee	Ei-
4cc#	-nes
8cc#	ver-
=72	=72
4.cc#	-klun-
4a	-gen,
8cc#	ich
=73	=73
4.ee	denk'
4cc#	ihm
8cc#	nicht
=74	=74
[4.cc#	nach,
4cc#]}	|}
{8a	{kommt
=75	=75
4.a	wie-
4dd#	-der
8ff#	ge-
=76	=76
4.ff#	-sprun-
4dd#	-gen
8a	ein
=77	=77
4.a	An-
4dd#	-de-
8ff#	-res
=78	=78
[4.ff#	nach,
4ff#]}	|}
{8a	{ein
=79	=79
[2.aa	An-
=80	=80
(4aa]	|
8ff#	|
4dd#)	|
8b	-dres
=81	=81
[2.a	nach.
=82	=82
2a]}	|}
8r	.
8r	.
=83	=83
2.r	.
=84	=84
4r	.
8r	.
4r	.
{8g#	{Kommt
=85	=85
2.g#	wie-
=86	=86
4.g#	-der
4.g#	ge-
=87	=87
(4.g#	-sprun-
[4.ee)	|
=88	=88
(4ee]	|
8cc#)	|
4a	-gen
8f#	ein
=89	=89
(2.d#	An-
=90	=90
[4.f#)	|
4f#]	|
8e	-dres
=91	=91
2.e}	nach!}
=92	=92
2.r	.
=93	=93
2.r	.
=94	=94
2.r	.
=95	=95
2.r	.
=96	=96
2.r	.
=97:|!	=97:|!
2.r	.
=98	=98
2.r	.
==	==
*-	*-
